mobile/20/svg/bookmark-badge-fill-20.svg

<svg width="20" height="20" viewBox="0 0 20 20" fill="none" xmlns="http://www.w3.org/2000/svg">
<path d="M10 5.686C10.292 5.686 10.55 5.861 10.658 6.132L11.518 8.29101L13.837 8.441C14.129 8.46 14.375 8.65201 14.465 8.93001C14.555 9.20701 14.468 9.507 14.243 9.693L12.455 11.177L13.029 13.43C13.101 13.713 12.995 14.006 12.759 14.178C12.635 14.268 12.489 14.314 12.343 14.314C12.212 14.314 12.081 14.277 11.964 14.204L10 12.962L8.035 14.204C7.918 14.278 7.787 14.314 7.656 14.314C7.51 14.314 7.364 14.268 7.24 14.178C7.004 14.006 6.898 13.713 6.97 13.43L7.544 11.178L5.756 9.693C5.532 9.507 5.445 9.20701 5.535 8.93001C5.625 8.65301 5.871 8.46101 6.162 8.44201L8.482 8.292L9.342 6.133C9.45 5.861 9.708 5.686 10 5.686ZM10 4.436C9.192 4.436 8.478 4.921 8.18 5.671L7.613 7.095L6.082 7.194C5.276 7.247 4.595 7.777 4.346 8.544C4.097 9.31 4.337 10.139 4.957 10.654L6.138 11.635L5.759 13.122C5.56 13.903 5.852 14.715 6.505 15.19C6.843 15.435 7.241 15.565 7.656 15.565C8.027 15.565 8.389 15.46 8.703 15.261L10 14.441L11.297 15.261C11.612 15.46 11.974 15.565 12.344 15.565C12.759 15.565 13.157 15.435 13.494 15.19C14.147 14.716 14.44 13.905 14.241 13.123L13.862 11.636L15.042 10.656C15.663 10.141 15.904 9.31201 15.654 8.545C15.407 7.779 14.725 7.248 13.919 7.195L12.387 7.096L11.819 5.67C11.521 4.92 10.807 4.436 10 4.436Z" fill="white"/>
<path d="M7.65601 14.314C7.51001 14.314 7.36401 14.268 7.24001 14.178C7.00401 14.006 6.89801 13.713 6.97001 13.43L7.54401 11.178L5.75601 9.693C5.53201 9.507 5.44501 9.20701 5.53501 8.93001C5.62501 8.65301 5.87101 8.46101 6.16201 8.44201L8.48201 8.292L9.34201 6.133C9.45001 5.861 9.70801 5.686 10 5.686C10.292 5.686 10.55 5.861 10.658 6.132L11.518 8.29101L13.837 8.441C14.129 8.46 14.375 8.65201 14.465 8.93001C14.555 9.20701 14.468 9.507 14.243 9.693L12.455 11.177L13.029 13.43C13.101 13.713 12.995 14.006 12.759 14.178C12.523 14.349 12.212 14.36 11.964 14.204L10 12.962L8.03501 14.204C7.91801 14.278 7.78701 14.314 7.65601 14.314Z" fill="black"/>
</svg>

<svg width="20" height="20" fill="none" xmlns="http://www.w3.org/2000/svg"><path d="M10 5.686c.292 0 .55.175.658.446l.86 2.159 2.319.15a.705.705 0 0 1 .628.489.703.703 0 0 1-.222.763l-1.788 1.484.574 2.253a.708.708 0 0 1-1.065.774L10 12.962l-1.965 1.242a.706.706 0 0 1-.795-.026.705.705 0 0 1-.27-.748l.574-2.252-1.788-1.485a.705.705 0 0 1-.221-.763.705.705 0 0 1 .627-.488l2.32-.15.86-2.159A.704.704 0 0 1 10 5.686zm0-1.25c-.808 0-1.522.485-1.82 1.235l-.567 1.424-1.531.099a1.95 1.95 0 0 0-1.736 1.35 1.948 1.948 0 0 0 .611 2.11l1.181.981-.379 1.487a1.95 1.95 0 0 0 .746 2.068 1.95 1.95 0 0 0 2.198.071l1.297-.82 1.297.82a1.958 1.958 0 0 0 2.944-2.138l-.379-1.487 1.18-.98a1.946 1.946 0 0 0 .612-2.111 1.948 1.948 0 0 0-1.735-1.35l-1.532-.099-.568-1.426A1.947 1.947 0 0 0 10 4.436z" fill="#fff"/><path d="M7.656 14.314a.708.708 0 0 1-.686-.884l.574-2.252-1.788-1.485a.705.705 0 0 1-.221-.763.705.705 0 0 1 .627-.488l2.32-.15.86-2.159A.704.704 0 0 1 10 5.686c.292 0 .55.175.658.446l.86 2.159 2.319.15a.705.705 0 0 1 .628.489.703.703 0 0 1-.222.763l-1.788 1.484.574 2.253a.705.705 0 0 1-.27.748.706.706 0 0 1-.795.026L10 12.962l-1.965 1.242a.706.706 0 0 1-.379.11z" fill="#000"/></svg>
